storage/app/icons/phosphoricons/bold/tornado-bold.svg

<svg xmlns="http://www.w3.org/2000/svg" fill="currentColor" viewBox="0 0 256 256"><path d="M232 44a12 12 0 0 1-12 12H60a12 12 0 0 1 0-24h160a12 12 0 0 1 12 12m-56 44a12 12 0 0 0-12-12H44a12 12 0 0 0 0 24h120a12 12 0 0 0 12-12m0 44a12 12 0 0 0-12-12H76a12 12 0 0 0 0 24h88a12 12 0 0 0 12-12m-4 32h-40a12 12 0 0 0 0 24h40a12 12 0 0 0 0-24m-32 44h-16a12 12 0 0 0 0 24h16a12 12 0 0 0 0-24"/></svg>

<svg xmlns="http://www.w3.org/2000/svg" viewBox="0 0 256 256" fill="currentColor"><path d="M232,44a12,12,0,0,1-12,12H60a12,12,0,0,1,0-24H220A12,12,0,0,1,232,44ZM176,88a12,12,0,0,0-12-12H44a12,12,0,0,0,0,24H164A12,12,0,0,0,176,88Zm0,44a12,12,0,0,0-12-12H76a12,12,0,0,0,0,24h88A12,12,0,0,0,176,132Zm-4,32H132a12,12,0,0,0,0,24h40a12,12,0,0,0,0-24Zm-32,44H124a12,12,0,0,0,0,24h16a12,12,0,0,0,0-24Z"/></svg>
